X: 9672
T: Deálaí's
R: slide
M: 12/8
K: Dmajor
|:A2 d dcd B2 A F2 E|D2 F A2 F G2 F E2 F|
[1 A2 d dcd B2 A F2 E|B2 e e2 d c2 B A2 F:|
[2 Add dcd B2 A FGA|B2 ^A B2 c d3 d2||
|:e|f2 d dcd g2 e e^de|f2 d dcd e2 A- A2 a|
[1 f2 d dcd g2 e e2 A|B/c/dB edc d2 A d2:|
[2 f2 d- dcd g2 e e2 g|f/g/af gec d3 dcB||

